!!!!SEGMENT: pl-kozmzk--mzk-m-33--004_szymanowska-maria--quand-un-amante-fidele-et-tendre.krn
!!!cenid: 18xx:2739
!!!COM: Szymanowska, Maria
!!!COM-rismID: pe140138
!!!CDT: 1789/12/14-1831/07/25
!!!CNT: Polish
!!!OTL: Quand un Amante fidèle et tendre
!!!PDT:
!!!AGN: Secular
!!!SMS-siglum: PL-KOZmzk
!!!SMS-shelfmark: mzk/m/33
!!!SMS-shelfwork: 004 W
!!!SMS-variant:
!!!SMS-altvar:
!!!NIFC-rismSourceID: 1001082120
!!!NIFC-islandoraID: pl-kozmzk:6878
!!!URL-pdf-islandora: https://repozytorium.nifc.pl/islandora/object/pl-kozmzk%3A6878/datastream/PDF/view
!!!URL-scan: https://polish.musicsources.pl/pl/lokalizacje/galeria/klocki-introligatorskie/380 @EN{Scan on Polish Music Herritage in Open Access Website} @PL{Skany w portalu Dziedzictwo Muzyki Polskiej w otwartym dostępie}
!!!ONB-nifc: UWAGA: „Six Romances” M. Szymanowskiej na str. 63-70
!!!AIN: 1 empty 1 piano 1 vox
!!!key:
**kern	**kern	**dynam	**kern	**text
*part3	*part2	*part2	*part1	*part1
*staff3	*staff2	*	*staff1	*staff1
*Iempty	*Ipiano	*	*Ivox	*
*	*I"Pianof.	*	*I"Chant	*
*clefF4	*clefG2	*	*clefG2	*
*k[b-]	*k[b-]	*	*k[b-]	*
*F:	*F:	*	*F:	*
*M3/4	*M3/4	*	*M3/4	*
*>[A,B,B1,B,B1,B,B2,C]	*>[A,B,B1,B,B1,B,B2,C]	*	*>[A,B,B1,B,B1,B,B2,C]	*
=1	=1	=1	=1	=1
*>A	*>A	*	*>A	*
!	!	!	!LO:TX:a:t=Paroles de Mme Saint-Onge	!
!	!	!	!LO:TX:a:i:t=Ballade	!
8FF\L	8f/L	.	2.r	.
!	!	!LO:DY:rj	!	!
16F\L	16c/L 16A/	p	.	.
16F\JJ	16c/JJ 16A/	.	.	.
8F'\L	8c/L 8A/	.	.	.
8F'\	16c/L 16A/	.	.	.
.	16f/JJ	.	.	.
8F'\	16d/LL 16B-/	.	.	.
.	16f/	.	.	.
8F'\J	16e/ 16d-X/ 16B-/	sf	.	.
.	16g/JJ	.	.	.
=2	=2	=2	=2	=2
8FF\L	8f/L 8A/	.	2.r	.
16F\L	16c/L 16A/	.	.	.
16F\JJ	16c/JJ 16A/	.	.	.
8F'\L	8c/L 8A/	.	.	.
8F'\	16c/L 16A/	.	.	.
.	16f/JJ	.	.	.
8F'\	16d/LL 16B-/	.	.	.
.	16f/	.	.	.
8F'\J	16e/ 16d-X/ 16B-/	.	.	.
.	16g/JJ	.	.	.
=3	=3	=3	=3	=3
8FF\L	8f/L	.	2.r	.
16F\L	16c/L 16A/	.	.	.
16F\JJ	16c/JJ 16A/	.	.	.
8F\L	8c/L 8A/	.	.	.
8F\	8c/ 8A/	.	.	.
8F\	8a/	.	.	.
8F\J	8c/J 8A/	.	.	.
=4	=4	=4	=4	=4
!	!	!	!LO:TX:a:t=[segno]	!
!	!	!	!LO:TX:t=P:problem=znak segno na kresce taktowej	!
8FF\L	8f/L	.	2.r	.
16F\L	16c/L 16A/	.	.	.
16F\JJ	16c/JJ 16A/	.	.	.
8F\L	8c/L 8A/	.	.	.
8F\	8c/ 8A/	.	.	.
8F\	8c/ 8A/	.	.	.
!LO:TX:a:t=[segno]	!LO:TX:a:t=[segno]	!	!	!
!LO:TX:t=P:problem=znak segno na kresce taktowej	!LO:TX:t=P:problem=znak segno na kresce taktowej	!	!	!
8F\J	8c/J 8A/	.	.	.
=5||	=5||	=5||	=5||	=5||
*>B	*>B	*	*>B	*
!LO:TX:t=P:problem=mixed beam	!	!	!	!
8FF/L	8c/L 8A/	.	[4a/	Quand
16F\L	16c/L 16A/	.	.	.
16F\JJ	16c/JJ 16A/	.	.	.
!	!	!	!LO:TUP:b:problem=klamra łukowa	!
8F\L	8c/L 8A/	.	12a/L]	.
.	.	.	12b-/	.
8F\	8c/ 8A/	.	.	.
.	.	.	12a/J	.
*	*	*	*Xtuplet	*
8F\	8d/ 8B-/	.	12g/L	un
.	.	.	12a/J	.
8F\J	8d/J 8B-/	.	.	.
.	.	.	12g/	A-
!!LO:LB:g=original
=6	=6	=6	=6	=6
8FF\L	8d/L 8B-/	.	[4d/	-mant
16F\L	16d/L 16B-/	.	.	.
16F\JJ	16d/JJ 16B-/	.	.	.
8F\L	8d/L 8B-/	.	8d/]	fi-
8F\	8d/ 8B-/	.	8f/	-dè-
8F\	8e/ 8d-X/ 8B-/	.	8e/	-le
!	!	!LO:DY:rj	!	!
8F\J	8e/J 8d-/ 8B-/	sf	8g/	et
=7	=7	=7	=7	=7
8FF\L	8f/L 8c/ 8A/	.	4g/	ten-
16F\L	16f/L 16c/ 16A/	.	.	.
16F\JJ	16f/JJ 16c/ 16A/	.	.	.
8F\L	8f/L 8c/ 8A/	.	8f/	-dre
8F\	8f/ 8c/ 8A/	.	8r	.
8F\	8f/ 8c/ 8A/	.	4r	.
8F\J	8f/J 8c/ 8A/	.	.	.
=8	=8	=8	=8	=8
8AA\L	8cc/L 8f/ 8c/	.	2cc^/	nous
16A\L	16cc/L 16f/ 16c/	.	.	.
16A\JJ	16cc/JJ 16f/ 16c/	.	.	.
8A\L	8cc/L 8f/ 8c/	.	.	.
8A\	8cc/ 8f/ 8c/	.	.	.
8A\	8cc/ 8f/ 8c/	.	8b-/L	sert
8A\J	8cc/J 8f/ 8c/	.	8a/J	.
=9	=9	=9	=9	=9
8BB-\L	8b-/L 8g/ 8d/	<	[4g/	et
16B-\L	16b-/L 16g/ 16d/	.	.	.
16B-\JJ	16b-/JJ 16g/ 16d/	.	.	.
8B-\L	8b-/L 8g/ 8d/	.	16g/LL]	.
.	.	.	16a/	.
8B-\	8b-/ 8g/ 8d/	[[	16b-/JJ	s'at-
.	.	.	16cc/	-ta-
8B-\	8b-/ 8g/ 8d/	.	(16cc#X/LL	-che
.	.	.	16dd/JJ)	.
8B-\J	8b-/J 8g/ 8d/	.	16b-/	à
.	.	.	16g/	nos
=10	=10	=10	=10	=10
4c\	4a/ 4f/	.	(4f/	pas
4C/	8g/L 8e`/	.	8e/)	.
.	(16cc/L 16e/	.	8r	.
.	16c/JJ)	.	.	.
4r	16b-/LL 16e/	.	4r	.
.	16c/	.	.	.
.	16g/ 16e/	.	.	.
.	16c/JJ	.	.	.
!!LO:LB:g=original
=11	=11	=11	=11	=11
8FF\L	8a/L 8f/	.	[4a/	pour
16F\L	16c/L 16A/	.	.	.
16F\JJ	16c/JJ 16A/	.	.	.
8F\L	8c/L 8A/	.	12a/L]	.
.	.	.	12b-/	.
8F\	8c/ 8A/	.	.	.
.	.	.	12a/J	.
8F\	8d/ 8B-/	.	12g/L	quoi
.	.	.	12a/J	.
8F\J	8d/J 8B-/	.	.	.
.	.	.	12g/	cher-
=12	=12	=12	=12	=12
8FF\L	8d/L 8B-/	.	[<4d/	-cher
16F\L	16d/L 16B-/	.	.	.
16F\JJ	16d/JJ 16B-/	.	.	.
8F\L	8d/L 8B-/	.	12d/L]	.
.	.	.	12e/J	.
8F\	8d/ 8B-/	.	.	.
.	.	.	12f/	à
8F\	8e/ 8d-X/ 8B-/	.	12e/L	se
.	.	.	12f/J	.
8F\J	8e/J 8d-/ 8B-/	.	.	.
.	.	.	12g/	dé-
=13	=13	=13	=13	=13
8FF\L	8f/L 8c/ 8A/	.	4g/	-fen-
16F\L	16f/L 16c/ 16A/	.	.	.
16F\JJ	16f/JJ 16c/ 16A/	.	.	.
8F\L	8f/L 8c/ 8A/	.	4f/	-dre
8F\	8f/ 8c/ 8A/	.	.	.
8F\	8f/ 8c/ 8A/	.	4r	.
8F\J	8f/J 8c/ 8A/	.	.	.
=14	=14	=14	=14	=14
!	!LO:TX:b:t=crescen_do:ext2=ud:problem=dynamics with extension lines	!LO:HP:t=crescen_do	!	!
4GG\	8r	<	2g/	qu'on
.	8f/ 8Bn</ 8G</	.	.	.
4BBn\	8r	.	.	.
.	8f/ 8d/ 8G</	.	.	.
!	!	!	!LO:TUP:a:problem=klamra łukowa	!
4GG\	8r	.	12bn/L	est
.	.	.	12a/	.
.	8f/ 8B</ 8G</	[	.	.
.	.	.	12g/J	.
=15	=15	=15	=15	=15
2C\	8r	f	(8.gg^\L	sot-
.	8e/L 8c/ 8G</	.	.	.
.	.	.	16ee\Jk)	.
.	8e/ 8c/ 8G</	.	4cc\	-te
.	8e/J 8c/ 8G</	.	.	.
4E\	8r	.	4r	.
.	8cc/ 8g/ 8c/	.	.	.
=16	=16	=16	=16	=16
4F\	8r	.	(8a/L	de
.	8a/ 8f/	.	8dd/J)	.
4G\	8r	.	(8dd/L	n'ai-
.	8cc/ 8e/	.	8cc/J)	.
4GG/	8r	.	(8cc/L	-mer
.	8bn/ 8f/ 8d/	.	8bn/J)	.
!!LO:LB:g=original
=17	=17	=17	=17	=17
8C\L	8cc/L 8e/	f	[2.cc\	pas
16c\L	16g/L 16e/	.	.	.
16c\JJ	16g/JJ 16e/	.	.	.
8c\L	8g/L 8e/	.	.	.
8c\	16g/L 16e/	.	.	.
.	16cc/JJ	.	.	.
8c\	16a/LL 16f/	.	.	.
.	16cc/	.	.	.
!	!	!LO:DY:rj	!	!
8c\J	16bn/ 16a-X/ 16f/	rf	.	.
.	16dd/JJ	.	.	.
=18	=18	=18	=18	=18
8C\L	8cc/L	.	2.cc\_	.
16c\L	16g/L 16e/	.	.	.
16c\JJ	16g/JJ 16e/	.	.	.
8c\L	8g/L 8e/	.	.	.
8c\	16g/L 16e/	.	.	.
.	16cc/JJ	.	.	.
8c\	16a/LL 16f/	.	.	.
.	16cc/	.	.	.
!	!	!LO:DY:rj	!	!
8c\J	16bn/ 16a-X/ 16f/	rf	.	.
.	16dd/JJ	.	.	.
=19	=19	=19	=19	=19
8C\L	8cc/L	.	2cc\]	.
16c\L	16g/L 16e/	.	.	.
16c\JJ	16g/JJ 16e/	.	.	.
8c\L	8g/L 8e/	.	.	.
8c\	8g/ 8e/	.	.	.
8c\	8ee/	.	4r	.
8c\J	8g/J 8e/	.	.	.
=20	=20	=20	=20	=20
8C\L	8cc/L	p	4r	.
16c\L	16g/L 16e/	.	.	.
16c\JJ	16g/JJ 16e/	.	.	.
8c\L	8g/L 8e/	.	8r	.
8c\	8g/ 8e/	.	8g/	mais
8c\	8g/ 8e/	.	8g/	quand
8c\J	8g/J 8e/	.	8g/	on
=21	=21	=21	=21	=21
!	!LO:TX:b:i:t=espres	!	!	!
8C\L	8a-X/L 8f/	.	4.a-X/	voit
16c\L	16a-/L 16f/	.	.	.
16c\JJ	16a-/JJ 16f/	.	.	.
8c\L	8a-/L 8f/	.	.	.
8c\	8a-/ 8f/	.	8cc^>/	un
8c\	8a-/ 8f/	.	8b-/	in-
8c\J	8a-/J 8f/	.	8a-/	-fi-
=22	=22	=22	=22	=22
8C\L	8g/L 8e/	.	8a-X/	-dè-
16c\L	16g/L 16e/	.	8g/	-le
16c\JJ	16g/JJ 16e/	.	.	.
8c\L	8g/L 8e/	.	4r	.
8c\	8g/ 8e/	.	.	.
8c\	8g/ 8e/	.	8r	.
8c\J	8g/J 8e/	.	8g/	qu'on
!!LO:PB:g=original
=23	=23	=23	=23	=23
8C\L	8a-X/L 8f/	.	4.a-X/	peut
16c\L	16a-/L 16f/	.	.	.
16c\JJ	16a-/JJ 16f/	.	.	.
8c\L	8a-/L 8f/	.	.	.
8c\	8a-/ 8f/	.	16cc/	ai-
.	.	.	16bn/	-sé-
8c\	8a-/ 8f/	.	(16dd-X^>/LL	-ment
.	.	.	16cc/JJ)	.
8c\J	8a-/J 8f/	.	16b/	en-
.	.	.	16a-X/	-flam-
=24	=24	=24	=24	=24
2C;/	2g/ 2e;/	.	2g;/	-mer,
4r	4r	.	8g#X/	qui
.	.	.	8g#/	vol-
=25	=25	=25	=25	=25
4F/ 4FF/	8r	.	4.a/	-ti-
.	8a/ 8f/ 8c/	.	.	.
4F/ 4FF/	8r	.	.	.
.	.	.	16qcc/	.
.	8a/ 8f/ 8c/	.	16b-/LL	-ge
.	.	.	16a/JJ	.
.	.	.	16qcc/	.
4E-X/ 4EE-X/	8r	.	16b-/LL	de
.	.	.	16a/JJ	.
.	.	.	16qcc/	.
.	8a/ 8f/ 8c/	.	16b-/	belle
.	.	.	16a/	en
=26	=26	=26	=26	=26
2D/ 2DD/	8r	.	8a/	bel-
.	8b-/L 8f/ 8B-/	.	8b-/	-le
.	8b-/ 8f/ 8B-/	.	8r	.
.	8b-/J 8f/ 8B-/	.	8dd/	ah!
4BB-/	8r	.	8b-/	que
.	8g/ 8d/ 8B-/	.	8g/	l'on
=27	=27	=27	=27	=27
2C\	8r	.	8e/	est
.	16e/LL 16B-</ 16G</	.	[8e^>/	sot-
.	16e/JJ 16B-</ 16G</	.	.	.
.	8e/L 8B-</ 8G</	.	16e/LL]	.
.	.	.	16f/	.
.	8e/ 8B-</ 8G</	.	16g/	.
.	.	.	16a/JJ	.
4CC\	8e/ 8B-</ 8G</	.	16b-/LL	-te
.	.	.	16cc/	.
.	8e/J 8B-</ 8G</	.	16dd/JJ	.
.	.	.	16cc/	d'ai-
!!LO:LB:g=original
=28	=28	=28	=28	=28
2FF/	8r	.	4a/	-mer
.	16f/LL 16c/ 16A/	.	.	.
.	16f/JJ 16c/ 16A/	.	.	.
.	8f/L 8c/ 8A/	.	4r	.
.	8f/ 8c/ 8A/	.	.	.
4r	8f/ 8c/ 8A/	.	8r	.
.	8f/J 8c/ 8A/	.	8cc\	qui
=29	=29	=29	=29	=29
4D\	8r	.	(16cc\LL	.
.	.	.	16b-\JJ)	.
.	8cc/ 8f#X/ 8d/	.	(16a/LL	vol-
.	.	.	16g/JJ)	.
4F#X\	8r	.	16f#X/LL	-ti-
.	.	.	16e-X/JJ	.
!	!	!LO:DY:rj	!	!
.	8cc/ 8a/ 8d/	sf	16d/	-ge
.	.	.	16f#X/	de
4D\	8r	.	(16dd/LL	belle
.	.	.	16cc/JJ)	.
.	8cc/ 8f#X/ 8d/	.	(16b-/LL	en
.	.	.	16a/JJ)	.
=30	=30	=30	=30	=30
2G\	8r	.	8cc\	bel-
.	8b-/L 8g/ 8d/	.	8b-\	-le
.	8b-/ 8g/ 8d/	.	8r	.
.	8b-/J 8g/ 8d/	.	(16cc#X\LL	ah!
.	.	.	16dd\JJ)	.
4BB-/	8r	.	(16a/LL	que
.	.	.	16b-/JJ)	.
.	8g/ 8d/ 8B-/	.	16g/	l'on
.	.	.	16a/	est
=31	=31	=31	=31	=31
2C/	8r	.	4.f/	sot-
.	8f/L 8c/ 8A/	.	.	.
.	8f/ 8c/ 8A/	.	.	.
.	8f/J 8c/ 8A/	.	8a/	.
!	!	!	!LO:TUP:a:problem=klamra łukowa	!
4CC/	8r	.	24g/LL	-te
.	.	.	24a/	.
.	.	.	24b-/JJ	.
.	8e/ 8B-</ 8G</	.	8g/	d'ai-
!!LO:LB:g=original
=32	=32	=32	=32	=32
8FF\L	8f/L 8A/	f	[>2.f/	-mer
16F\L	16c/L 16A/	.	.	.
16F\JJ	16c/JJ 16A/	.	.	.
8F\L	8c/L 8A/	.	.	.
8F\	16c/L 16A/	.	.	.
.	16f/JJ	.	.	.
8F\	16d/LL 16B-/	.	.	.
.	16f/	.	.	.
8F\J	16e/ 16d-X/ 16B-/	.	.	.
.	16g/JJ	.	.	.
=33	=33	=33	=33	=33
!	!LO:TX:b:t=per_den do si:dur=6qs:ext2=ud:ext3=s:problem=text with extension lines	!	!	!
8FF\L	8f/L 8A/	.	2.f/_>	.
16F\L	16c/L 16A/	.	.	.
16F\JJ	16c/JJ 16A/	.	.	.
8F\L	8c/L 8A/	.	.	.
8F\	16c/L 16A/	.	.	.
.	16f/JJ	.	.	.
8F\	16d/LL 16B-/	.	.	.
.	16f/	.	.	.
8F\J	16e/ 16d-X/ 16B-/	.	.	.
.	16g/JJ	.	.	.
=34	=34	=34	=34	=34
8FF\L	8f/L	.	2f/]	.
16F\L	16c/L 16A/	.	.	.
16F\JJ	16c/JJ 16A/	.	.	.
8F\L	8c/L 8A/	.	.	.
8F\	8c/ 8A/	.	.	.
8F\	8a/	.	4r	.
8F\J	8c/J 8A/	.	.	.
=35	=35	=35	=35	=35
!LO:TX:t=pour recommencer	!	!	!LO:TX:a:t=[segno]	!
*>B1	*>B1	*	*>B1	*
!	!	!	!LO:TX:t=P:problem=znak segno na kresce taktowej	!
8FF\L	8f/L	.	2.r	.
16F\L	16c/L 16A/	.	.	.
16F\JJ	16c/JJ 16A/	.	.	.
8F\L	8c/L 8A/	.	.	.
8F\	8c/ 8A/	.	.	.
8F\	8c/ 8A/	.	.	.
!LO:TX:a:t=[segno]	!LO:TX:a:t=[segno]	!	!	!
!LO:TX:t=P:problem=znak segno na kresce taktowej	!LO:TX:t=P:problem=znak segno na kresce taktowej	!	!	!
8F\J	8c/J 8A/	.	.	.
=36||	=36||	=36||	=36||	=36||
!LO:TX:t=pour finir	!	!	!	!
*>B2	*>B2	*	*>B2	*
!LO:N:vis=2	!	!	!	!
2.F\ 2.FF\	8f/L	pp	2.r	.
.	16c/L 16A/	.	.	.
.	16c/JJ 16A/	.	.	.
.	8c/L 8A/	.	.	.
.	8c/ 8A/	.	.	.
.	8a/	.	.	.
.	8c/J 8A/	.	.	.
=37	=37	=37	=37	=37
*>C	*>B	*	*>B	*
!LO:TX:t=P:problem=pod pięciolinią dodatkowe 2 zwrotki	!	!	!	!
!LO:N:vis=2	!	!	!	!
2.F\ 2.FF;\	2.f/ 2.c/ 2.A;/	.	2.r;	.
==	==	==	==	==
*-	*-	*-	*-	*-
!!!system-decoration: s1{s2,s3}
!!!RDF**kern: > = above
!!!RDF**kern: < = below
!!!EED: Andrzej Borzym
!!!EEV: 2021-08-08
!!!ENC: Andrzej Kubiczek
!!!END: 2021-07-28
